X:1
T:Title
%%score { ( 1 3 4 ) | ( 2 5 6 ) }
L:1/8
M:4/4
K:Eb
V:1 treble nm="Grand Piano"
V:3 treble 
V:4 treble 
V:2 bass 
V:5 bass 
V:6 bass 
V:1
 z4 z2[Q:1/4=100] E>G | [GB]>G c>G B2 [Ge]>[Bd] | c>A e>c [GB]2 E>G | %3
 [GB]>G c>G [B,GB]>[B,EG] [B,FA]>[B,EG] | [B,DF]6 [G,E]>[B,EG] | [B,GB]>G c>G B2 [Ge]>[Bd] | %6
 c>A e>c [GB]2 [Ge]>[Ge] | [Ge]>[GB] [Ac]>[GB] [EGB]>[B,E] [B,EG]>[A,DF] |[M:3/4] [G,E]6 | %9
[M:1/4] B>c |[M:4/4] G6 z2 | B,>B, z z/ E,/ B,2[K:treble] E>[B,D] | %12
 C>C C>C [B,C]>[B,E] [B,F]>[B,G] | z z/ C/ D>E F2 B>c | G6 z2 | z2 B,2 z4 | %16
 [E,A,C]2[K:treble] [A,CF]2 [G,B,E]2[K:bass] [F,B,D]2 |[M:3/4] [G,B,E]6 |] %18
V:2
 z4 z2 [E,G,]>[E,B,E] | [E,B,]>[E,B,E] [E,A,E]>[E,B,E] [E,G,E]2 [E,B,]>[K:treble][G,E] | %2
 [A,EA]>[A,CE] [A,CE]>[A,EA][K:bass] [E,E]2 [E,G,]>[E,B,E] | %3
 [E,B,]>[E,B,E] [E,A,E]>[E,B,E] E,>E, D,>E, | B,,2 A,,>G,, F,,2 E,>E, | %5
 E,>[E,B,E] [E,A,E]>[E,B,E] [E,G,E]2 [E,B,]>[K:treble][G,E] | %6
 [A,EA]>[A,CE] [A,CE]>[A,EA][K:bass] [E,E]2 [E,B,]>[E,B,] | %7
 [E,B,]>[E,E] [E,E]>[E,E] B,>G, B,,>B,, |[M:3/4] E,6 |[M:1/4] G,>A, |[M:4/4] B,6 z2 | G,6 z2 | %12
 [A,,E,A,]>[E,A,] [A,,E,A,]>[A,,E,A,] [F,,F,]>[F,,F,] [F,,C,]>[F,,C,] | [D,B,]2 z2 z4 | B,6 z2 | %15
 G,6 z2 | A,,2 F,,2 B,,2 B,,2 |[M:3/4] E,6 |] %18
V:3
 x8 | x8 | x8 | x8 | x8 | x8 | x8 | x8 |[M:3/4] x6 |[M:1/4] x2 |[M:4/4] z2 E>E z z/ F/ E>G | %11
 z2 B,2 z4[K:treble] | x8 | F4 z4 | z2 E>E z z/ F/ E>G | B,>B, z z/ E,/ B,2 [G,CE]>[E,B,D] | %16
 x2[K:treble] x4[K:bass] x2 |[M:3/4] x6 |] %18
V:4
 x8 | x8 | x8 | x8 | x8 | x8 | x8 | x8 |[M:3/4] x6 |[M:1/4] x2 |[M:4/4] z4 E2 z2 | %11
 x6[K:treble] x2 | x8 | x8 | z4 E2 z2 | x8 | x2[K:treble] x4[K:bass] x2 |[M:3/4] x6 |] %18
V:5
 x8 | x15/2[K:treble] x/ | x4[K:bass] x4 | x8 | x8 | x15/2[K:treble] x/ | x4[K:bass] x4 | x8 | %8
[M:3/4] x6 |[M:1/4] x2 |[M:4/4] z2 E,>E, z z/ A,/ G,>E, | z z/ E,/ E,2 E,2 [E,G,B,]>[G,,E,] | x8 | %13
 B,,->[B,,-E,] [B,,-F,]>[B,,-G,] [B,,A,]2 G,>A, | z2 E,>E, z z/ A,/ G,>E, | %15
 z z/ E,/ E,2 E,2 E,>G,, | x8 |[M:3/4] x6 |] %18
V:6
 x8 | x15/2[K:treble] x/ | x4[K:bass] x4 | x8 | x8 | x15/2[K:treble] x/ | x4[K:bass] x4 | x8 | %8
[M:3/4] x6 |[M:1/4] x2 |[M:4/4] z4 E,2 z2 | x8 | x8 | x8 | z4 E,2 z2 | x8 | x8 |[M:3/4] x6 |] %18

